src/topics/icons/morpheus.svg

<svg height="106" preserveAspectRatio="xMidYMid" viewBox="0 0 512 106" width="512" xmlns="http://www.w3.org/2000/svg"><path d="m159.240344 50.0718282v21.8243491c0 2.5950778-2.123439 4.0697336-4.246894 4.0697336-1.887496 0-3.539057-1.4746797-3.539057-4.0697336v-33.2083998c0-3.0669438 2.595309-4.0697455 3.539057-4.0697455 1.710603 0 2.713393 1.0027777 3.716182 2.1231957l12.976339 17.5184252 13.44868-18.1674281c1.946306-2.417917 6.724096-1.4741928 6.724096 2.5955647v33.2083878c0 2.5950778-1.651573 4.0697336-3.539057 4.0697336-2.123455 0-3.775017-1.4746797-3.775017-4.0697336v-21.8243491l-9.791295 12.3868363c-2.123687 2.5950658-4.777802 2.5950658-6.724352 0zm66.005636 26.484036c-10.912193.471894-22.23719-6.7833815-22.23719-21.234364 0-14.5105229 11.324997-21.6472123 22.23719-21.6472123 10.322195.5304448 21.11628 7.667601 21.11628 21.6472123.000024 13.9791125-10.794085 21.234364-21.11628 21.234364zm-.648991-35.2139673c-6.606245 0-13.802223 4.6601977-13.802223 13.9795993 0 9.2603641 7.195974 13.9791125 13.802223 13.9791125 6.783369 0 14.038409-4.7187484 14.038409-13.9791125.000004-9.3194136-7.25504-13.9795993-14.038409-13.9795993zm41.231464 30.789972c0 5.1315769-7.84497 5.3087137-7.84497.1180833v-33.503141c0-2.0646331 1.592751-3.5983424 3.539289-3.5983424h15.689739c14.982146 0 18.049106 20.0549242 5.544645 25.0684179l7.84475 9.555608c3.067175 4.5420905-3.067199 8.9065772-6.606269 4.4239953l-8.906565-12.7406232h-9.260619zm0-17.4593835h11.384062c7.667821 0 8.139711-12.3868484 0-12.3868484h-11.384062zm36.512715-15.9847039c0-1.9465378 1.533733-4.0697455 4.010935-4.0697455h13.625585c7.668088 0 14.569078 5.1315768 14.569078 14.9819021 0 9.3194057-6.90099 14.5100481-14.569078 14.5100481h-9.850568v7.7861712c0 2.5950778-1.65155 4.0697335-3.775017 4.0697335-1.946318 0-4.010935-1.4746677-4.010935-4.0697335zm7.785952 3.3621759v14.687173h9.850568c3.951651 0 7.078139-3.4802472 7.078139-7.1371803 0-4.1287871-3.126484-7.5499927-7.078139-7.5499927zm35.156613 30.2590364v-33.503129c0-2.1236707 1.53371-3.657408 4.187817-3.657408 2.064645 0 3.598354 1.5337094 3.598354 3.657408v12.8587064h19.228809v-12.8587064c0-2.1236707 1.887496-3.657408 4.010692-3.657408 2.064645 0 3.657396 1.5337094 3.657396 3.657408v33.503129c0 2.0641422-1.592751 3.6569091-3.657396 3.6569091-2.123196 0-4.010692-1.5927629-4.010692-3.6569091v-12.91776h-19.228809v12.917772c0 2.0641421-1.533709 3.6569091-3.598354 3.6569091-2.654107-.000016-4.187817-1.592755-4.187817-3.6569211zm50.905375 3.6569051c-2.064621 0-3.657372-1.5927629-3.657372-3.6569091v-33.503129c0-2.1236707 1.592751-3.657408 3.657372-3.657408h21.17537c5.426294 0 5.308215 7.6680999 0 7.6680999h-16.987506v8.8480145h14.863819c5.249661 0 5.249661 7.7266666 0 7.7266666h-14.863819v8.8475356h17.990284c5.367304 0 5.780105 7.7271415 0 7.7271415h-22.178148zm64.883573-36.9243465c0-5.2496721 7.727153-5.6624966 7.727153 0v21.3524711c0 22.0600408-35.56781 22.0600408-35.56781 0v-21.3524711c0-5.3082389 7.727154-5.5444013 7.727154 0v21.3524711c0 11.6197382 20.113503 12.3278067 20.113503 0zm19.643999 4.9549388c1.356585-11.4430882 18.638836-13.5077332 26.778789-7.2552475 4.010716 3.2440807-.235679 8.3756576-3.774988 5.7806037-4.364965-2.7722146-14.274356-4.0697455-15.51281 2.0641581-1.592751 9.6736634 24.065616 4.1292621 23.652768 19.8187459-.412852 14.982401-22.119058 15.3361997-30.259012 8.6118479-1.946562-1.5922761-1.88752-4.1878287-.825701-5.7805797 1.53327-1.5332225 3.244105-2.0641422 5.249221-.4128245 4.836808 3.3031343 17.282738 5.7805918 18.167428-2.5950658-.766615-8.7299671-25.304125-3.480299-23.475695-20.2316381z" fill="#78c5e1"/><path d="m104.665263 66.1155018c-5.7505863 23.1033475-26.790925 39.5404072-51.571733 39.5404072-24.893013 0-45.75223217-17.4099634-51.26715856-40.6086555 6.63140964 0 12.83081176.030301 15.70891426.030301 1.3576899 0 1.6213559.0235528 1.6999118.0179379 2.1655804-.1065981 4.8809922-.8213549 6.6874982-5.2142431l6.8838819-18.007439 15.2881404 36.8090408c1.3745304 2.934183 3.6691724 2.7263461 5.0380561 2.7263461h.1290615c2.6705169 0 3.831863-.9358067 4.847331-2.8713702l17.2685668-36.3880196 5.8908374 16.3992842.3590704.794015c1.2454769 2.7322204 2.141441 5.4309712 5.2237489 5.7836366.6353868.0726936 8.014041-.0562043 17.9611439-.0562043.000004 0 .000063.0638025-.147271 1.0449629z" fill="#78c5e1"/><path d="m106.352349 52.5083535c0 .2749037 0 .9663152-.005615.9663152h-.01123-15.8769842l-9.2628861-25.8752069c-.8246951-1.9243339-2.0645931-4.8091765-5.677649-4.8091765-2.2104672 0-4.2077421 1.8255813-5.3410419 4.8383202l-16.7917005 38.8947165-16.1633451-38.6587815c-1.5821159-3.4335167-2.6761039-5.048312-5.8403357-5.048312-2.1487639 0-3.725261.7915288-5.4420213 4.8590077l-9.5936469 26.1836281-15.93895506-.0166849c-.01122968-.3983464-.0168126-.796593-.0168126-1.1949394 0-29.1063779 23.59703046-52.62976097 52.70340036-52.62976097 29.10637 0 53.258823 23.38450857 53.258823 52.49087447z" fill="#f46e5d"/></svg>

<?xml version="1.0" encoding="UTF-8"?>
<svg width="512px" height="106px" viewBox="0 0 512 106" version="1.1" xmlns="http://www.w3.org/2000/svg" xmlns:xlink="http://www.w3.org/1999/xlink" preserveAspectRatio="xMidYMid">
	<g>
		<path d="M159.240344,50.0718282 L159.240344,71.8961773 C159.240344,74.4912551 157.116905,75.9659109 154.99345,75.9659109 C153.105954,75.9659109 151.454393,74.4912312 151.454393,71.8961773 L151.454393,38.6877775 C151.454393,35.6208337 154.049702,34.618032 154.99345,34.618032 C156.704053,34.618032 157.706843,35.6208097 158.709632,36.7412277 L171.685971,54.2596529 L185.134651,36.0922248 C187.080957,33.6743078 191.858747,34.618032 191.858747,38.6877895 L191.858747,71.8961773 C191.858747,74.4912551 190.207174,75.9659109 188.31969,75.9659109 C186.196235,75.9659109 184.544673,74.4912312 184.544673,71.8961773 L184.544673,50.0718282 L174.753378,62.4586645 C172.629691,65.0537303 169.975576,65.0537303 168.029026,62.4586645 L159.240344,50.0718282 Z M225.24598,76.5558642 C214.333787,77.0277582 203.00879,69.7724827 203.00879,55.3215002 C203.00879,40.8109773 214.333787,33.6742879 225.24598,33.6742879 C235.568175,34.2047327 246.36226,41.3418889 246.36226,55.3215002 C246.362284,69.3006127 235.568175,76.5558642 225.24598,76.5558642 Z M224.596989,41.3418969 C217.990744,41.3418969 210.794766,46.0020946 210.794766,55.3214962 C210.794766,64.5818603 217.99074,69.3006087 224.596989,69.3006087 C231.380358,69.3006087 238.635398,64.5818603 238.635398,55.3214962 C238.635402,46.0020826 231.380358,41.3418969 224.596989,41.3418969 Z M265.828453,72.1318689 C265.828453,77.2634458 257.983483,77.4405826 257.983483,72.2499522 L257.983483,38.7468112 C257.983483,36.6821781 259.576234,35.1484688 261.522772,35.1484688 L277.212511,35.1484688 C292.194657,35.1484688 295.261617,55.203393 282.757156,60.2168867 L290.601906,69.7724947 C293.669081,74.3145852 287.534707,78.6790719 283.995637,74.19649 L275.089072,61.4558668 L265.828453,61.4558668 L265.828453,72.1318689 L265.828453,72.1318689 Z M265.828453,54.6724854 L277.212515,54.6724854 C284.880336,54.6724854 285.352226,42.285637 277.212515,42.285637 L265.828453,42.285637 L265.828453,54.6724854 L265.828453,54.6724854 Z M302.341168,38.6877815 C302.341168,36.7412437 303.874901,34.618036 306.352103,34.618036 L319.977688,34.618036 C327.645776,34.618036 334.546766,39.7496128 334.546766,49.5999381 C334.546766,58.9193438 327.645776,64.1099862 319.977688,64.1099862 L310.12712,64.1099862 L310.12712,71.8961574 C310.12712,74.4912352 308.47557,75.9658909 306.352103,75.9658909 C304.405785,75.9658909 302.341168,74.4912232 302.341168,71.8961574 L302.341168,38.6877815 Z M310.12712,42.0499574 L310.12712,56.7371304 L319.977688,56.7371304 C323.929339,56.7371304 327.055827,53.2568832 327.055827,49.5999501 C327.055827,45.471163 323.929343,42.0499574 319.977688,42.0499574 L310.12712,42.0499574 Z M345.283733,72.3089938 L345.283733,38.8058648 C345.283733,36.6821941 346.817443,35.1484568 349.47155,35.1484568 C351.536195,35.1484568 353.069904,36.6821662 353.069904,38.8058648 L353.069904,51.6645712 L372.298713,51.6645712 L372.298713,38.8058648 C372.298713,36.6821941 374.186209,35.1484568 376.309405,35.1484568 C378.37405,35.1484568 379.966801,36.6821662 379.966801,38.8058648 L379.966801,72.3089938 C379.966801,74.373136 378.37405,75.9659029 376.309405,75.9659029 C374.186209,75.9659029 372.298713,74.37314 372.298713,72.3089938 L372.298713,59.3912338 L353.069904,59.3912338 L353.069904,72.3090058 C353.069904,74.3731479 351.536195,75.9659149 349.47155,75.9659149 C346.817443,75.9658989 345.283733,74.3731599 345.283733,72.3089938 Z M396.189108,75.9658989 C394.124487,75.9658989 392.531736,74.373136 392.531736,72.3089898 L392.531736,38.8058608 C392.531736,36.6821901 394.124487,35.1484528 396.189108,35.1484528 L417.364478,35.1484528 C422.790772,35.1484528 422.672693,42.8165527 417.364478,42.8165527 L400.376972,42.8165527 L400.376972,51.6645672 L415.240791,51.6645672 C420.490452,51.6645672 420.490452,59.3912338 415.240791,59.3912338 L400.376972,59.3912338 L400.376972,68.2387694 L418.367256,68.2387694 C423.73456,68.2387694 424.147361,75.9659109 418.367256,75.9659109 L396.189108,75.9659109 L396.189108,75.9658989 Z M461.072681,39.0415524 C461.072681,33.7918803 468.799834,33.3790558 468.799834,39.0415524 L468.799834,60.3940235 C468.799834,82.4540643 433.232024,82.4540643 433.232024,60.3940235 L433.232024,39.0415524 C433.232024,33.7333135 440.959178,33.4971511 440.959178,39.0415524 L440.959178,60.3940235 C440.959178,72.0137617 461.072681,72.7218302 461.072681,60.3940235 L461.072681,39.0415524 Z M480.71668,43.9964912 C482.073265,32.553403 499.355516,30.488758 507.495469,36.7412437 C511.506185,39.9853244 507.25979,45.1169013 503.720481,42.5218474 C499.355516,39.7496328 489.446125,38.4521019 488.207671,44.5860055 C486.61492,54.2596689 512.273287,48.7152676 511.860439,64.4047514 C511.447587,79.3871524 489.741381,79.7409511 481.601427,73.0165993 C479.654865,71.4243232 479.713907,68.8287706 480.775726,67.2360196 C482.308996,65.7027971 484.019831,65.1718774 486.024947,66.8231951 C490.861755,70.1263294 503.307685,72.6037869 504.192375,64.2281293 C503.42576,55.4981622 478.88825,60.7478303 480.71668,43.9964912 Z" fill="#78C5E1"></path>
		<path d="M104.665263,66.1155018 C98.9146767,89.2188493 77.874338,105.655909 53.09353,105.655909 C28.200517,105.655909 7.34129783,88.2459456 1.82637144,65.0472535 C8.45778108,65.0472535 14.6571832,65.0775545 17.5352857,65.0775545 C18.8929756,65.0775545 19.1566416,65.1011073 19.2351975,65.0954924 C21.4007779,64.9888943 24.1161897,64.2741375 25.9226957,59.8812493 L32.8065776,41.8738103 L48.094718,78.6828511 C49.4692484,81.6170341 51.7638904,81.4091972 53.1327741,81.4091972 L53.2618356,81.4091972 C55.9323525,81.4091972 57.0936986,80.4733905 58.1091666,78.537827 L75.3777334,42.1498074 L81.2685708,58.5490916 L81.6276412,59.3431066 C82.8731181,62.075327 83.7690822,64.7740778 86.8513901,65.1267432 C87.4867769,65.1994368 94.8654311,65.0705389 104.812534,65.0705389 C104.812538,65.0705389 104.812597,65.1343414 104.665263,66.1155018 Z" fill="#78C5E1"></path>
		<path d="M106.352349,52.5083535 C106.352349,52.7832572 106.352349,53.4746687 106.346734,53.4746687 L106.335504,53.4746687 L90.4585198,53.4746687 L81.1956337,27.5994618 C80.3709386,25.6751279 79.1310406,22.7902853 75.5179847,22.7902853 C73.3075175,22.7902853 71.3102426,24.6158666 70.1769428,27.6286055 L53.3852423,66.523322 L37.2218972,27.8645405 C35.6397813,24.4310238 34.5457933,22.8162285 31.3815615,22.8162285 C29.2327976,22.8162285 27.6563005,23.6077573 25.9395402,27.6752362 L16.3458933,53.8588643 L0.406938239,53.8421794 C0.395708558,53.443833 0.390125643,53.0455864 0.390125643,52.64724 C0.390125643,23.5408621 23.9871561,0.0174790335 53.093526,0.0174790335 C82.199896,0.0174790335 106.352349,23.4019876 106.352349,52.5083535 Z" fill="#F46E5D"></path>
	</g>
</svg>
